flaticon/seo-and-analytics/browser-4.svg

<svg xmlns="http://www.w3.org/2000/svg" width="32" height="32" viewBox="0 0 24 24">
    <path d="M2.800781 1.199219C1.921875 1.199219 1.199219 1.921875 1.199219 2.800781 1.199219 3.679688 1.921875 4.398438 2.800781 4.398438 3.679688 4.398438 4.398438 3.679688 4.398438 2.800781 4.398438 1.921875 3.679688 1.199219 2.800781 1.199219zM2.800781 3.601562C2.359375 3.601562 2 3.238281 2 2.800781 2 2.359375 2.359375 2 2.800781 2 3.238281 2 3.601562 2.359375 3.601562 2.800781 3.601562 3.238281 3.238281 3.601562 2.800781 3.601562zM6.398438 1.199219C5.519531 1.199219 4.800781 1.921875 4.800781 2.800781 4.800781 3.679688 5.519531 4.398438 6.398438 4.398438 7.28125 4.398438 8 3.679688 8 2.800781 8 1.921875 7.28125 1.199219 6.398438 1.199219zM6.398438 3.601562C5.960938 3.601562 5.601562 3.238281 5.601562 2.800781 5.601562 2.359375 5.960938 2 6.398438 2 6.839844 2 7.199219 2.359375 7.199219 2.800781 7.199219 3.238281 6.839844 3.601562 6.398438 3.601562zM10 1.199219C9.121094 1.199219 8.398438 1.921875 8.398438 2.800781 8.398438 3.679688 9.121094 4.398438 10 4.398438 10.878906 4.398438 11.601562 3.679688 11.601562 2.800781 11.601562 1.921875 10.878906 1.199219 10 1.199219zM10 3.601562C9.558594 3.601562 9.199219 3.238281 9.199219 2.800781 9.199219 2.359375 9.558594 2 10 2 10.441406 2 10.800781 2.359375 10.800781 2.800781 10.800781 3.238281 10.441406 3.601562 10 3.601562zM10 3.601562"/>
    <path d="M 22.878906 0 L 1.160156 0 C 0.519531 0 0 0.519531 0 1.160156 L 0 22.71875 C 0 23.441406 0.558594 24 1.28125 24 L 22.71875 24 C 23.441406 24 24 23.441406 24 22.71875 L 24 1.160156 C 24 0.519531 23.480469 0 22.878906 0 Z M 23.199219 22.71875 C 23.199219 23 23 23.199219 22.71875 23.199219 L 1.28125 23.199219 C 1 23.199219 0.800781 23 0.800781 22.71875 L 0.800781 5.601562 L 23.199219 5.601562 Z M 0.800781 4.800781 L 0.800781 1.160156 C 0.800781 0.960938 0.960938 0.800781 1.160156 0.800781 L 22.839844 0.800781 C 23.039062 0.800781 23.199219 0.960938 23.199219 1.160156 L 23.199219 4.800781 Z M 0.800781 4.800781"/>
    <path d="M 8.441406 20.800781 L 15.558594 20.800781 C 16 20.800781 16.398438 20.398438 16.398438 19.960938 L 16.398438 13.640625 C 16.398438 13.210938 16.058594 12.824219 15.601562 12.800781 L 15.601562 11.601562 C 15.601562 9.601562 14 8 12 8 C 10 8 8.398438 9.601562 8.398438 11.601562 L 8.398438 12.800781 C 7.976562 12.824219 7.601562 13.175781 7.601562 13.640625 L 7.601562 19.960938 C 7.601562 20.398438 8 20.800781 8.441406 20.800781 Z M 9.199219 11.601562 C 9.199219 10.039062 10.441406 8.800781 12 8.800781 C 13.558594 8.800781 14.800781 10.039062 14.800781 11.601562 L 14.800781 12.800781 L 9.199219 12.800781 Z M 8.398438 13.640625 C 8.398438 13.640625 8.398438 13.601562 8.441406 13.601562 L 15.558594 13.601562 C 15.558594 13.601562 15.601562 13.601562 15.601562 13.640625 L 15.601562 19.960938 C 15.601562 19.960938 15.601562 20 15.558594 20 L 8.441406 20 C 8.441406 20 8.398438 20 8.398438 19.960938 Z M 8.398438 13.640625"/>
    <path d="M 11.601562 17.949219 L 11.601562 18.761719 C 11.601562 19 11.761719 19.160156 12 19.160156 C 12.238281 19.160156 12.398438 19 12.398438 18.761719 L 12.398438 17.949219 C 13.089844 17.769531 13.601562 17.140625 13.601562 16.398438 C 13.601562 15.519531 12.878906 14.800781 12 14.800781 C 11.121094 14.800781 10.398438 15.519531 10.398438 16.398438 C 10.398438 17.140625 10.910156 17.769531 11.601562 17.949219 Z M 12 15.601562 C 12.441406 15.601562 12.800781 15.960938 12.800781 16.398438 C 12.800781 16.839844 12.441406 17.199219 12 17.199219 C 11.558594 17.199219 11.199219 16.839844 11.199219 16.398438 C 11.199219 15.960938 11.558594 15.601562 12 15.601562 Z M 12 15.601562"/>
</svg>

<svg xmlns="http://www.w3.org/2000/svg" width="32" height="32" viewBox="0 0 24 24">
    <path d="M2.8 1.2c-.878 0-1.6.722-1.6 1.6 0 .88.722 1.598 1.6 1.598.88 0 1.598-.718 1.598-1.597 0-.88-.718-1.602-1.597-1.602zm0 2.402A.804.804 0 0 1 2 2.8C2 2.359 2.36 2 2.8 2c.438 0 .802.36.802.8 0 .438-.364.802-.801.802zm0 0M6.398 1.2c-.878 0-1.597.722-1.597 1.6 0 .88.719 1.598 1.597 1.598C7.281 4.398 8 3.68 8 2.801c0-.88-.719-1.602-1.602-1.602zm0 2.402a.801.801 0 0 1 0-1.602c.442 0 .801.36.801.8 0 .438-.36.802-.8.802zm0 0M10 1.2c-.879 0-1.602.722-1.602 1.6 0 .88.723 1.598 1.602 1.598.879 0 1.602-.718 1.602-1.597 0-.88-.723-1.602-1.602-1.602zm0 2.402a.804.804 0 0 1-.8-.801.802.802 0 0 1 1.6 0c0 .437-.359.8-.8.8zm0 0"/>
    <path d="M22.879 0H1.16C.52 0 0 .52 0 1.16V22.72C0 23.44.559 24 1.281 24H22.72C23.44 24 24 23.441 24 22.719V1.16C24 .52 23.48 0 22.879 0zm.32 22.719c0 .281-.199.48-.48.48H1.28c-.281 0-.48-.199-.48-.48V5.602h22.398zM.801 4.8V1.16C.8.96.96.8 1.16.8H22.84c.2 0 .36.16.36.36V4.8zm0 0"/>
    <path d="M8.441 20.8h7.118c.441 0 .84-.402.84-.84v-6.32c0-.43-.34-.816-.797-.84v-1.198C15.602 9.602 14 8 12 8c-2 0-3.602 1.602-3.602 3.602V12.8a.847.847 0 0 0-.796.84v6.32c0 .437.398.84.84.84zm.758-9.198C9.2 10.039 10.441 8.8 12 8.8c1.559 0 2.8 1.238 2.8 2.8v1.2H9.2zm-.8 2.039s0-.04.042-.04h7.118s.043 0 .043.04v6.32s0 .039-.043.039H8.44s-.043 0-.043-.04zm0 0"/>
    <path d="M11.602 17.95v.812c0 .238.16.398.398.398.238 0 .398-.16.398-.398v-.813a1.608 1.608 0 0 0 1.204-1.55c0-.88-.723-1.598-1.602-1.598-.879 0-1.602.719-1.602 1.597 0 .743.512 1.372 1.204 1.551zM12 15.601c.441 0 .8.359.8.796a.802.802 0 0 1-1.6 0c0-.437.359-.796.8-.796zm0 0"/>
</svg>
